X: 194
T: Ku Lingding
L: 1/8
M: 2/4
K: G
d> e d A/ B/ [I:setbarnb 1]| 
G2F E | 
A> B A E/ F/ | 
D4 | 
d> e d c | 
B A/ B/ A D | 
A> B A E/ F/ | 
D4 | 
F BA2 | 
d> e d c | 
B A/ B/ A D | 
F B A G | 
F E D E/ G/ | 
D4 |]

@@@ Tune index: 9068
